img/circlesTop.svg

<svg width="145" height="145" viewBox="0 0 145 145" fill="none" xmlns="http://www.w3.org/2000/svg">
<g opacity="0.6" clip-path="url(#clip0_2234_9749)">
<path d="M72.5498 0C32.4434 0 0 32.4434 0 72.5498C0 112.557 32.4434 145.1 72.5498 145.1C112.557 145.1 145.1 112.656 145.1 72.5498C145 32.4434 112.557 0 72.5498 0ZM72.5498 140.422C35.0309 140.422 4.67742 110.069 4.67742 72.5498C4.67742 35.0309 35.0309 4.67742 72.5498 4.67742C110.069 4.67742 140.422 35.0309 140.422 72.5498C140.422 109.969 109.969 140.422 72.5498 140.422Z" fill="white"/>
<path d="M72.5498 15.625C41.2011 15.625 15.7241 41.102 15.7241 72.4507C15.7241 103.799 41.2011 129.276 72.5498 129.276C103.898 129.276 129.375 103.899 129.375 72.5502C129.375 41.102 103.898 15.625 72.5498 15.625ZM72.5498 120.618C45.9781 120.618 24.3823 99.0224 24.3823 72.4507C24.3823 45.8789 45.9781 24.2832 72.5498 24.2832C99.1215 24.2832 120.717 45.8789 120.717 72.4507C120.717 99.0224 99.1215 120.618 72.5498 120.618Z" fill="white"/>
<path d="M72.5503 40.6035C54.9353 40.6035 40.6045 54.9343 40.6045 72.5493C40.6045 90.1642 54.8358 104.495 72.5503 104.495C90.1652 104.495 104.496 90.1642 104.496 72.5493C104.397 54.9343 90.1652 40.6035 72.5503 40.6035ZM72.5503 89.6666C63.0959 89.6666 55.4329 82.0036 55.4329 72.5493C55.4329 63.0949 63.0959 55.4319 72.5503 55.4319C82.0046 55.4319 89.6676 63.0949 89.6676 72.5493C89.6676 82.0036 82.0046 89.6666 72.5503 89.6666Z" fill="white"/>
</g>
<defs>
<clipPath id="clip0_2234_9749">
<rect width="145" height="145" fill="white"/>
</clipPath>
</defs>
</svg>

<svg width="145" height="145" fill="none" xmlns="http://www.w3.org/2000/svg"><g opacity=".6" clip-path="url(#clip0_2234_9749)" fill="#fff"><path d="M72.55 0C32.443 0 0 32.443 0 72.55c0 40.007 32.443 72.55 72.55 72.55 40.007 0 72.55-32.444 72.55-72.55C145 32.443 112.557 0 72.55 0zm0 140.422c-37.52 0-67.873-30.353-67.873-67.872 0-37.52 30.354-67.873 67.873-67.873 37.519 0 67.872 30.354 67.872 67.873 0 37.419-30.453 67.872-67.872 67.872z"/><path d="M72.55 15.625c-31.349 0-56.826 25.477-56.826 56.826 0 31.348 25.477 56.825 56.826 56.825 31.348 0 56.825-25.377 56.825-56.726 0-31.448-25.477-56.925-56.825-56.925zm0 104.993c-26.572 0-48.168-21.596-48.168-48.167 0-26.572 21.596-48.168 48.168-48.168s48.167 21.596 48.167 48.168c0 26.571-21.596 48.167-48.167 48.167z"/><path d="M72.55 40.603c-17.615 0-31.945 14.331-31.945 31.946 0 17.615 14.23 31.946 31.945 31.946 17.615 0 31.946-14.33 31.946-31.946-.099-17.615-14.33-31.946-31.946-31.946zm0 49.064c-9.454 0-17.117-7.663-17.117-17.118 0-9.454 7.663-17.117 17.117-17.117 9.455 0 17.118 7.663 17.118 17.117 0 9.455-7.663 17.118-17.118 17.118z"/></g><defs><clipPath id="clip0_2234_9749"><path fill="#fff" d="M0 0h145v145H0z"/></clipPath></defs></svg>
